!!!COM:	Pierre de la Rue
**kern	**kern
*part2	*part1
*staff2	*staff1
*clefGv2	*clefGv2
*k[]	*k[]
*M2/1	*M2/1
=1-	=1-
0D	1D
.	2F
.	2G
=2	=2
1D	2A
.	1B
[1G	.
.	2G
=3	=3
1G]	2B
.	2c
1G	2d
.	2e
=4	=4
1F	2r
.	2A
1E	2B
.	2c
=5	=5
1D	2d
.	1f
1A	.
.	2e
=6	=6
2D	1f
1A	.
.	2e
2D	[2f
=7	=7
1A	4f]
.	4e
.	2c
2D	2r
[2A	2c
=8	=8
2A]	2e
2D	2f
1r	2g
.	[2a
=9	=9
1A	2a]
.	2A
2A	2c
[2G	2d
=10	=10
2G]	2e
1F	2f
.	2d
[2E	[2g
=11	=11
2E]	4g]
.	4e
1D	2.f
.	4d
[2A	2e
=12	=12
4A]	2A
4F	.
2G	1e
2C	.
[2c	2e
=13	=13
4c]	2.a
4A	.
2B	.
.	4f
2E	2g
[2A	2c
=14	=14
4A]	2.f
4F	.
2G	.
.	4d
2C	2e
[2F	2A
=15	=15
4F]	2.d
4D	.
2E	.
.	4B
2AA	4c
.	4d
[2A	[2e
=16	=16
4A]	2e]
4F	.
2G	1d
1E	.
.	2c
=17	=17
(<0D	0d
=18	=18
0D)	1r
.	1f
=19	=19
1r	2f
.	2e
1d	2d
.	[2f
=20	=20
2d	2f]
1c	1e
2c	4d
.	4c
=21	=21
2d	2B
2c	2A
2d	2f
2A	2e
=22	=22
1d	2d
.	1f
2d	.
[2c	[2e
=23	=23
2c]	2e]
2c	4d
.	4c
2d	[1B
[2G	.
=24	=24
2G]	1B]
2G	.
1F	1A
=25	=25
2F	1d
2.G	.
.	2d
4F	.
4E	[2c
4D	.
=26	=26
1E	2c]
.	2c
1D	2.d
.	4c
=27	=27
2r	4d
.	4c
1G	4B
.	4A
.	1B
2G	.
=28	=28
1F	1A
2F	1d
[2G	.
=29	=29
4G]	2d
4F	.
4E	1c
4D	.
1E	.
.	2c
=30	=30
1D	2.d
.	4c
2r	4d
.	4c
[2d	4B
.	4A
=31	=31
2d]	1B
2d	.
1c	1A
=32	=32
2c	1a
2.d	.
.	2a
4c	.
4B	[2g
4A	.
=33	=33
1B	2g]
.	2g
1A	2.a
.	4g
=34	=34
2r	4a
.	4g
1d	4f
.	4e
.	1f
2d	.
=35	=35
1c	1e
2c	1a
[2d	.
=36	=36
4d]	2a
4c	.
4B	1g
4A	.
1B	.
.	2g
=37	=37
1A	2a
.	2e
2r	2f
2A	2e
=38	=38
2D	2r
2A	2e
2r	2f
2A	2e
=39	=39
2D	2r
2A	2e
2D	2f
[2A	2e
=40	=40
2A]	2f
2B	2g
2c	4g
.	2e
4c	.
[4A	4c
=41	=41
4A]	2c
4F	.
2F	2.f
2.B-X	.
.	4e
.	4d
4A	4c
=42	=42
4G	4B
4F	4A
4E	1d
4D	.
1E	.
.	2c
=43	=43
0D	0d
==	==
*-	*-
!!!RDF**kern: < = below
